X:106
T: Floh - Hatz
N: A0467
O: Europa, Mitteleuropa, Deutschland
N: Forster II 1540 No.37.
R: Romanze, Ballade, Lied
M: 4/2
L: 1/2
K: G
g | gggg | =f2e
d | eddc | d2z
g | gggg | =f2e
d | dBcA | G2z
G | BBcc | d2d
d | eddc | d2z
G | de=fd | g2g
g | dBcA | G3

